X:72
T:Feed the Ducks
M:6/8
L:1/8
R:jig
N:Learned from Kira Ott (through sheet music)
Z:Kira Ott
K:A
~E3 AEc|BAF FEF|AeA (f{a}f)(e|e)cA BAF|
~E3 AEc|BAF FEF|A2f ecA|1 BAF AGF:|2 BAF Ace|
~f3 fec|~f3 adf|ecA EFD|CEA cea|~f3 fec|~f3 adf|ecA ~f3|eAB cde|
~f3 fec|~f3 adf|ecA EFD|CEA cAB|AeA (ff)e|AeA (f{a}f)e|AeA (ff)e-|zcA BAF|
